Origami/64x64/apps/kdiff3.svg

<svg width="64" height="64" version="1" xmlns="http://www.w3.org/2000/svg">
 <path d="m10 56v2c0 1.662 1.338 3 3 3h38c1.662 0 3-1.338 3-3v-2c0 1.662-1.338 3-3 3h-38c-1.662 0-3-1.338-3-3z" style="opacity:.2"/>
 <path d="m54 57v-50c0-1.662-1.338-3-3-3h-38c-1.662 0-3 1.338-3 3v50c0 1.662 1.338 3 3 3h38c1.662 0 3-1.338 3-3z" style="fill:#cccccc"/>
 <path d="m13 4c-1.662 0-3 1.338-3 3v1c0-1.662 1.338-3 3-3h38c1.662 0 3 1.338 3 3v-1c0-1.662-1.338-3-3-3h-38z" style="fill:#ffffff;opacity:.1"/>
 <path d="m51.25 60c1.524 0 2.75-1.314 2.75-2.948v-25.052h-44v25.052c0 1.634 1.2264 2.948 2.75 2.948z" style="opacity:.5"/>
 <g transform="matrix(2,0,0,2,0,2)" style="fill:#4c4c4c">
  <path d="m9 5h14v1h-14z"/>
  <path d="m9 8h14v1h-14z"/>
  <path d="m9 11h14v1h-14z"/>
 </g>
 <g transform="matrix(2,0,0,2,0,28)" style="fill:#cccccc">
  <path d="m9 5h14v1h-14z"/>
  <path d="m9 8h14v1h-14z"/>
  <path d="m9 11h14v1h-14z"/>
 </g>
</svg>

<svg xmlns="http://www.w3.org/2000/svg" width="64" height="64" version="1">
 <path style="opacity:0.2" d="m 10,56 0,2 c 0,1.662 1.338,3 3,3 l 38,0 c 1.662,0 3,-1.338 3,-3 l 0,-2 c 0,1.662 -1.338,3 -3,3 l -38,0 c -1.662,0 -3,-1.338 -3,-3 z"/>
 <path style="fill:#cccccc" d="M 54,57 54,7 C 54,5.338 52.662,4 51,4 L 13,4 c -1.662,0 -3,1.338 -3,3 l 0,50 c 0,1.662 1.338,3 3,3 l 38,0 c 1.662,0 3,-1.338 3,-3 z"/>
 <path style="opacity:0.1;fill:#ffffff" d="M 13 4 C 11.338 4 10 5.338 10 7 L 10 8 C 10 6.338 11.338 5 13 5 L 51 5 C 52.662 5 54 6.338 54 8 L 54 7 C 54 5.338 52.662 4 51 4 L 13 4 z"/>
 <path style="opacity:0.5" d="M 51.25,60 C 52.774,60 54,58.686 54,57.052 L 54,32 10,32 10,57.052 C 10,58.686 11.2264,60 12.75,60 Z"/>
 <g style="fill:#4c4c4c" transform="matrix(2,0,0,2,0,2)">
  <path d="M 9,5 23,5 23,6 9,6 Z"/>
  <path d="M 9,8 23,8 23,9 9,9 Z"/>
  <path d="m 9,11 14,0 0,1 -14,0 z"/>
 </g>
 <g style="fill:#cccccc" transform="matrix(2,0,0,2,0,28)">
  <path d="M 9,5 23,5 23,6 9,6 Z"/>
  <path d="M 9,8 23,8 23,9 9,9 Z"/>
  <path d="m 9,11 14,0 0,1 -14,0 z"/>
 </g>
</svg>
